symbols/web/event_available/materialsymbolsrounded/event_available_wght700_40px.svg

<svg xmlns="http://www.w3.org/2000/svg" height="40" width="40"><path d="m16.583 29.375-3.5-3.458q-.5-.5-.479-1.167.021-.667.521-1.167.458-.458 1.146-.458.687 0 1.187.458l2.667 2.709 6.292-6.375q.5-.5 1.166-.459.667.042 1.167.542.458.5.479 1.167.021.666-.479 1.125l-7.125 7.083Q19 30 18.104 30q-.896 0-1.521-.625Zm-8.375 8.458q-1.833 0-3.104-1.271-1.271-1.27-1.271-3.104V9.292q0-1.834 1.271-3.104 1.271-1.271 3.104-1.271h1.917V4q0-.708.563-1.292.562-.583 1.312-.583t1.292.583q.541.584.541 1.292v.917h12.334V4q0-.708.562-1.292.563-.583 1.271-.583.792 0 1.333.583.542.584.542 1.292v.917h1.917q1.833 0 3.125 1.271 1.291 1.27 1.291 3.104v24.166q0 1.834-1.291 3.104-1.292 1.271-3.125 1.271Zm0-4.375h23.584V16.375H8.208v17.083Zm0-19.833h23.584V9.292H8.208Zm0 0V9.292v4.333Z"/></svg>

<svg xmlns="http://www.w3.org/2000/svg" height="40" width="40"><path d="M16.583 29.375 13.083 25.917Q12.583 25.417 12.604 24.75Q12.625 24.083 13.125 23.583Q13.583 23.125 14.271 23.125Q14.958 23.125 15.458 23.583L18.125 26.292L24.417 19.917Q24.917 19.417 25.583 19.458Q26.25 19.5 26.75 20Q27.208 20.5 27.229 21.167Q27.25 21.833 26.75 22.292L19.625 29.375Q19 30 18.104 30Q17.208 30 16.583 29.375ZM8.208 37.833Q6.375 37.833 5.104 36.562Q3.833 35.292 3.833 33.458V9.292Q3.833 7.458 5.104 6.188Q6.375 4.917 8.208 4.917H10.125V4Q10.125 3.292 10.688 2.708Q11.25 2.125 12 2.125Q12.75 2.125 13.292 2.708Q13.833 3.292 13.833 4V4.917H26.167V4Q26.167 3.292 26.729 2.708Q27.292 2.125 28 2.125Q28.792 2.125 29.333 2.708Q29.875 3.292 29.875 4V4.917H31.792Q33.625 4.917 34.917 6.188Q36.208 7.458 36.208 9.292V33.458Q36.208 35.292 34.917 36.562Q33.625 37.833 31.792 37.833ZM8.208 33.458H31.792Q31.792 33.458 31.792 33.458Q31.792 33.458 31.792 33.458V16.375H8.208V33.458Q8.208 33.458 8.208 33.458Q8.208 33.458 8.208 33.458ZM8.208 13.625H31.792V9.292Q31.792 9.292 31.792 9.292Q31.792 9.292 31.792 9.292H8.208Q8.208 9.292 8.208 9.292Q8.208 9.292 8.208 9.292ZM8.208 13.625V9.292Q8.208 9.292 8.208 9.292Q8.208 9.292 8.208 9.292Q8.208 9.292 8.208 9.292Q8.208 9.292 8.208 9.292V13.625Z"/></svg>
